X: 6379
T: Castle Dangerous
R: waltz
M: 3/4
K: Gmajor
|:G>A|B2 d2 BG|[C2E2] [E2c2] GE|D2 G2 Bd|A4 G>A|
B2 d2 BG|[C2E2] [E2c2] GE|D2 B2 cF|G4:|
|:B>c|d2 Bd BG|[C2E2] [E2c2] GE|D2 G2 Bd|A4 B>c|
d2 Bd BG|[C2E2] [E2c2]|D2 B2 cF|G4:|

